; generated by PrusaSlicer 2.5.2+linux-x64-GTK2 on 2023-06-06 at 14:21:51 UTC


;
;
; 

; external perimeters extrusion width = 0.45mm
; perimeters extrusion width = 0.45mm
; infill extrusion width = 0.45mm
; solid infill extrusion width = 0.45mm
; top infill extrusion width = 0.40mm
; first layer extrusion width = 0.42mm

M73 P0 R8
M73 Q0 S8
M201 X1000 Y1000 Z200 E5000 ; sets maximum accelerations, mm/sec^2
M203 X200 Y200 Z12 E120 ; sets maximum feedrates, mm / sec
M204 P1250 R1250 T1250 ; sets acceleration (P, T) and retract acceleration (R), mm/sec^2
M205 X8.00 Y8.00 Z0.40 E4.50 ; sets the jerk limits, mm/sec
M205 S0 T0 ; sets the minimum extruding and travel feed rate, mm/sec
M107
;TYPE:Custom
M862.3 P "MK3S" ; printer model check
M862.1 P0.4 ; nozzle diameter check
M115 U3.12.2 ; tell printer latest fw version
G90 ; use absolute coordinates
M83 ; extruder relative mode
M104 S215 ; set extruder temp
M140 S60 ; set bed temp
M190 S60 ; wait for bed temp
M109 S215 ; wait for extruder temp
G28 W ; home all without mesh bed level
G80 ; mesh bed leveling

G1 Z0.2 F720
G1 Y-3 F1000 ; go outside print area
G92 E0
G1 X60 E9 F1000 ; intro line
G1 X100 E12.5 F1000 ; intro line

G92 E0
M221 S95

; Don't change E values below. Excessive value can damage the printer.
M907 E430 ; set extruder motor current
G21 ; set units to millimeters
G90 ; use absolute coordinates
M83 ; use relative distances for extrusion
M900 K0.05 ; Filament gcode LA 1.5
M900 K30 ; Filament gcode LA 1.0
M107
;LAYER_CHANGE
;Z:0.2
;HEIGHT:0.2
;BEFORE_LAYER_CHANGE
G92 E0.0
;0.2


G1 E-1.5 F2100
M73 P1 R8
M73 Q1 S8
G1 Z.4 F720
;AFTER_LAYER_CHANGE
;0.2
G1 X117.717 Y99.251 F10800
M73 P1 R7
G1 Z.2 F720
G1 E1.5 F2100
M204 S800
;TYPE:Skirt/Brim
;WIDTH:0.42
G1 F1200
G1 X118.865 Y98.039 E.05233
G1 X119.654 Y97.417 E.0315
G1 X120.505 Y96.883 E.0315
G1 X121.768 Y96.305 E.04355
G1 X122.682 Y96.016 E.03005
G1 X123.666 Y95.818 E.0315
G1 X124.667 Y95.728 E.0315
G1 X125.671 Y95.746 E.0315
G1 X126.668 Y95.873 E.0315
G1 X127.645 Y96.107 E.0315
G1 X129.195 Y96.725 E.05233
G1 X130.066 Y97.227 E.0315
G1 X130.876 Y97.82 E.0315
G1 X131.851 Y98.744 E.04211
G1 X132.488 Y99.521 E.0315
G1 X133.036 Y100.363 E.0315
G1 X133.737 Y101.877 E.05233
G1 X134.023 Y102.84 E.0315
G1 X134.204 Y103.828 E.0315
G1 X134.277 Y104.83 E.0315
G1 X134.241 Y105.834 E.0315
G1 X134.096 Y106.829 E.0315
G1 X133.845 Y107.801 E.0315
G1 X133.49 Y108.741 E.0315
G1 X133.036 Y109.637 E.0315
G1 X132.488 Y110.479 E.0315
G1 X131.851 Y111.256 E.0315
G1 X130.876 Y112.18 E.04211
G1 X130.066 Y112.773 E.0315
G1 X129.195 Y113.275 E.0315
G1 X127.645 Y113.893 E.05233
G1 X126.668 Y114.127 E.0315
G1 X125.671 Y114.254 E.0315
G1 X124.328 Y114.254 E.04211
G1 X122.682 Y113.984 E.05233
G1 X121.724 Y113.681 E.0315
G1 X120.805 Y113.275 E.0315
G1 X119.934 Y112.773 E.0315
G1 X119.124 Y112.18 E.0315
G1 X118.119 Y111.221 E.04356
G1 X117.512 Y110.479 E.03004
M73 Q2 S8
G1 X116.964 Y109.637 E.0315
G1 X116.51 Y108.741 E.0315
G1 X116.155 Y107.801 E.0315
G1 X115.904 Y106.829 E.0315
G1 X115.759 Y105.834 E.0315
M73 P2 R7
G1 X115.759 Y104.166 E.05233
G1 X115.977 Y102.84 E.04211
G1 X116.263 Y101.877 E.0315
G1 X116.652 Y100.951 E.0315
G1 X117.139 Y100.072 E.0315
G1 X117.683 Y99.3 E.02962
M204 S1000
G1 X117.99 Y99.516 F10800
M204 S800
G1 F1200
G1 X119.125 Y98.313 E.05184
G1 X119.882 Y97.717 E.03022
G1 X120.699 Y97.206 E.03022
G1 X121.888 Y96.662 E.041
G1 X122.763 Y96.384 E.02877
G1 X123.707 Y96.193 E.03022
G1 X124.667 Y96.105 E.03022
G1 X125.631 Y96.121 E.03022
G1 X126.587 Y96.241 E.03022
G1 X127.525 Y96.464 E.03022
G1 X129.037 Y97.067 E.05105
G1 X129.871 Y97.55 E.03022
G1 X130.648 Y98.12 E.03022
G1 X131.564 Y98.988 E.03955
M73 Q2 S7
G1 X132.176 Y99.733 E.03022
G1 X132.703 Y100.539 E.03022
G1 X133.387 Y102.017 E.05105
G1 X133.66 Y102.941 E.03022
G1 X133.832 Y103.889 E.03022
G1 X133.9 Y104.851 E.03022
G1 X133.864 Y105.814 E.03022
G1 X133.66 Y107.059 E.03955
G1 X133.387 Y107.983 E.03022
G1 X133.015 Y108.872 E.03022
G1 X132.549 Y109.716 E.03022
G1 X131.995 Y110.505 E.03022
G1 X130.875 Y111.687 E.05105
G1 X130.118 Y112.283 E.03022
G1 X129.301 Y112.794 E.03022
G1 X128.433 Y113.213 E.03022
G1 X127.525 Y113.536 E.03022
G1 X126.587 Y113.759 E.03022
G1 X125.631 Y113.879 E.03022
G1 X124.369 Y113.879 E.03955
G1 X123.413 Y113.759 E.03022
G1 X122.475 Y113.536 E.03022
G1 X120.963 Y112.933 E.05105
G1 X120.129 Y112.45 E.03022
G1 X119.352 Y111.88 E.03022
G1 X118.406 Y110.977 E.041
G1 X117.824 Y110.267 E.02876
G1 X117.297 Y109.461 E.03022
G1 X116.86 Y108.602 E.03022
G1 X116.518 Y107.701 E.03022
G1 X116.168 Y106.111 E.05105
G1 X116.1 Y105.149 E.03022
G1 X116.136 Y104.186 E.03022
G1 X116.34 Y102.941 E.03955
G1 X116.613 Y102.017 E.03022
G1 X116.985 Y101.128 E.03022
G1 X117.451 Y100.284 E.03022
G1 X117.956 Y99.565 E.02754
M204 S1000
G1 X118.276 Y99.765 F10800
M204 S800
G1 F1200
G1 X119.384 Y98.587 E.05069
G1 X120.894 Y97.53 E.0578
G1 X122.009 Y97.019 E.03844
G1 X123.748 Y96.568 E.05635
G1 X125.59 Y96.496 E.05779
G1 X127.404 Y96.822 E.0578
G1 X128.879 Y97.409 E.04977
G1 X130.42 Y98.42 E.0578
G1 X131.277 Y99.232 E.037
G1 X132.37 Y100.716 E.0578
G1 X133.119 Y102.4 E.0578
G1 X133.46 Y103.95 E.04977
G1 X133.488 Y105.794 E.0578
G1 X133.297 Y106.958 E.037
G1 X132.682 Y108.696 E.0578
G1 X131.708 Y110.261 E.0578
G1 X130.616 Y111.413 E.04977
G1 X129.106 Y112.47 E.0578
M73 Q3 S7
G1 X127.404 Y113.178 E.0578
G1 X125.59 Y113.504 E.0578
M73 P3 R7
G1 X124.41 Y113.504 E.037
G1 X122.596 Y113.178 E.0578
G1 X121.121 Y112.591 E.04977
G1 X119.58 Y111.58 E.0578
G1 X118.693 Y110.733 E.03844
G1 X117.63 Y109.284 E.05635
G1 X116.881 Y107.6 E.0578
G1 X116.512 Y105.794 E.0578
G1 X116.512 Y104.206 E.04977
G1 X116.703 Y103.042 E.037
G1 X117.318 Y101.304 E.0578
G1 X118.245 Y99.816 E.05498
M204 S1000
; printing object hour_hand_insert_68.stl id:0 copy 0
;WIPE_START
G1 F8640
G1 X119.384 Y98.587 E-.38689
G1 X120.894 Y97.53 E-.42563
G1 X122.009 Y97.019 E-.2831
G1 X123.389 Y96.661 E-.32938
;WIPE_END
G1 E-.075 F2100
G1 Z.6 F720
G1 X121.529 Y109.087 F10800
G1 Z.2 F720
G1 E1.5 F2100
M204 S800
;TYPE:Perimeter
;WIDTH:0.419999
G1 F1200
G1 X121.107 Y108.687 E.0182
G1 X120.732 Y108.245 E.0182
G1 X120.406 Y107.764 E.0182
G1 X120.134 Y107.251 E.0182
G1 X119.919 Y106.712 E.0182
G1 X119.764 Y106.153 E.0182
G1 X119.67 Y105.58 E.0182
G1 X119.638 Y105 E.0182
G1 X119.67 Y104.42 E.0182
G1 X119.764 Y103.847 E.0182
G1 X119.919 Y103.288 E.0182
G1 X120.134 Y102.749 E.0182
G1 X120.406 Y102.236 E.0182
G1 X120.732 Y101.755 E.0182
G1 X121.107 Y101.313 E.0182
G1 X121.529 Y100.913 E.0182
G1 X121.991 Y100.562 E.0182
G1 X122.489 Y100.263 E.0182
G1 X123.015 Y100.019 E.0182
G1 X123.566 Y99.834 E.0182
G1 X124.133 Y99.709 E.0182
G1 X124.71 Y99.646 E.0182
G1 X125.29 Y99.646 E.0182
G1 X125.867 Y99.709 E.0182
G1 X126.434 Y99.834 E.0182
G1 X126.985 Y100.019 E.0182
G1 X127.511 Y100.263 E.0182
G1 X128.009 Y100.562 E.0182
G1 X128.471 Y100.913 E.0182
G1 X128.893 Y101.313 E.0182
G1 X129.268 Y101.755 E.0182
G1 X129.594 Y102.236 E.0182
G1 X129.866 Y102.749 E.0182
G1 X130.081 Y103.288 E.0182
G1 X130.236 Y103.847 E.0182
G1 X130.33 Y104.42 E.0182
G1 X130.362 Y105 E.0182
G1 X130.33 Y105.58 E.0182
G1 X130.236 Y106.153 E.0182
G1 X130.081 Y106.712 E.0182
G1 X129.866 Y107.251 E.0182
G1 X129.594 Y107.764 E.0182
G1 X129.268 Y108.245 E.0182
G1 X128.893 Y108.687 E.0182
G1 X128.471 Y109.087 E.0182
G1 X128.009 Y109.438 E.0182
G1 X127.512 Y109.737 E.0182
G1 X126.985 Y109.981 E.0182
G1 X126.434 Y110.166 E.0182
G1 X125.867 Y110.291 E.0182
G1 X125.29 Y110.354 E.0182
G1 X124.71 Y110.354 E.0182
G1 X124.133 Y110.291 E.0182
G1 X123.566 Y110.166 E.0182
G1 X123.015 Y109.981 E.0182
G1 X122.489 Y109.737 E.0182
G1 X121.991 Y109.438 E.0182
G1 X121.577 Y109.123 E.01632
M204 S1000
G1 X121.284 Y109.374 F10800
M204 S800
;TYPE:External perimeter
G1 F1200
G1 X120.833 Y108.947 E.01949
G1 X120.431 Y108.473 E.01949
G1 X120.082 Y107.959 E.01948
G1 X119.791 Y107.41 E.01949
G1 X119.561 Y106.833 E.01948
G1 X119.395 Y106.234 E.01949
G1 X119.294 Y105.621 E.01948
G1 X119.261 Y105 E.01949
G1 X119.294 Y104.379 E.01949
G1 X119.395 Y103.766 E.01948
G1 X119.561 Y103.167 E.01949
G1 X119.791 Y102.59 E.01949
G1 X120.082 Y102.041 E.01948
G1 X120.431 Y101.527 E.01948
G1 X120.833 Y101.053 E.01949
G1 X121.284 Y100.626 E.01949
G1 X121.779 Y100.25 E.01948
G1 X122.312 Y99.929 E.01949
G1 X122.876 Y99.668 E.01948
G1 X123.465 Y99.47 E.01949
G1 X124.071 Y99.336 E.01948
G1 X124.689 Y99.269 E.01949
G1 X125.311 Y99.269 E.01949
G1 X125.929 Y99.336 E.01948
G1 X126.535 Y99.47 E.01948
G1 X127.124 Y99.668 E.01949
G1 X127.688 Y99.929 E.01948
G1 X128.221 Y100.25 E.01949
G1 X128.716 Y100.626 E.01948
G1 X129.167 Y101.053 E.01949
G1 X129.569 Y101.527 E.01949
G1 X129.918 Y102.041 E.01948
G1 X130.209 Y102.59 E.01949
G1 X130.439 Y103.167 E.01948
G1 X130.605 Y103.766 E.01949
G1 X130.706 Y104.379 E.01948
G1 X130.739 Y105 E.01949
G1 X130.706 Y105.621 E.01949
G1 X130.605 Y106.234 E.01948
G1 X130.439 Y106.833 E.01949
G1 X130.209 Y107.41 E.01948
G1 X129.918 Y107.959 E.01949
G1 X129.569 Y108.473 E.01948
M73 Q4 S7
G1 X129.167 Y108.947 E.01949
G1 X128.716 Y109.374 E.01949
G1 X128.221 Y109.75 E.01948
G1 X127.688 Y110.071 E.01948
G1 X127.124 Y110.332 E.01949
G1 X126.535 Y110.53 E.01949
M73 P4 R7
G1 X125.929 Y110.664 E.01948
G1 X125.311 Y110.731 E.01949
G1 X124.689 Y110.731 E.01948
G1 X124.071 Y110.664 E.01949
G1 X123.465 Y110.53 E.01948
G1 X122.876 Y110.332 E.01949
G1 X122.312 Y110.071 E.01948
G1 X121.779 Y109.75 E.01949
G1 X121.332 Y109.411 E.0176
M204 S1000
G1 X121.356 Y108.981 F10800
;WIPE_START
G1 F8640
G1 X120.833 Y108.947 E-.15728
G1 X120.431 Y108.473 E-.1435
G1 X120.082 Y107.959 E-.14349
G1 X119.791 Y107.41 E-.1435
G1 X119.561 Y106.833 E-.14349
G1 X119.395 Y106.234 E-.1435
G1 X119.294 Y105.621 E-.14349
G1 X119.261 Y105 E-.1435
G1 X119.294 Y104.379 E-.1435
G1 X119.378 Y103.868 E-.11976
;WIPE_END
G1 E-.075 F2100
G1 Z.6 F720
G1 X126.632 Y108.851 F10800
G1 Z.2 F720
G1 E1.5 F2100
M204 S800
;TYPE:Perimeter
G1 F1200
G1 X126.099 Y109.04 E.01773
G1 X125.499 Y109.157 E.01916
G1 X124.888 Y109.185 E.01916
G1 X124.292 Y109.125 E.01879
G1 X123.687 Y108.975 E.01954
G1 X123.123 Y108.742 E.01916
G1 X122.629 Y108.447 E.01803
G1 X122.142 Y108.057 E.01957
G1 X121.714 Y107.594 E.01976
G1 X121.403 Y107.135 E.01739
G1 X121.105 Y106.534 E.02103
G1 X120.923 Y105.951 E.01916
G1 X120.84 Y105.43 E.01652
G1 X120.823 Y104.705 E.02274
G1 X120.905 Y104.13 E.01821
G1 X121.044 Y103.647 E.01577
G1 X121.329 Y102.987 E.02253
G1 X121.661 Y102.474 E.01916
G1 X122.065 Y102.015 E.01916
G1 X122.531 Y101.619 E.01916
G1 X123.049 Y101.296 E.01916
G1 X123.609 Y101.051 E.01916
G1 X124.199 Y100.891 E.01916
G1 X124.783 Y100.821 E.01845
G1 X125.413 Y100.834 E.01976
G1 X126.019 Y100.94 E.01927
G1 X126.576 Y101.123 E.01841
G1 X127.125 Y101.395 E.01919
G1 X127.643 Y101.754 E.01976
G1 X128.056 Y102.142 E.01776
G1 X128.468 Y102.656 E.02066
G1 X128.773 Y103.186 E.01916
G1 X128.971 Y103.687 E.0169
G1 X129.136 Y104.35 E.02141
G1 X129.186 Y104.959 E.01916
G1 X129.155 Y105.473 E.01615
G1 X129.021 Y106.166 E.02215
G1 X128.808 Y106.739 E.01916
G1 X128.514 Y107.275 E.01916
G1 X128.145 Y107.763 E.01916
G1 X127.71 Y108.191 E.01916
G1 X127.235 Y108.538 E.01845
G1 X126.688 Y108.83 E.01942
M204 S1000
G1 X126.479 Y108.509 F10800
M204 S800
;TYPE:External perimeter
G1 F1200
G1 X125.977 Y108.683 E.01665
G1 X125.43 Y108.786 E.01744
G1 X124.875 Y108.808 E.01744
G1 X124.333 Y108.751 E.01706
G1 X123.783 Y108.61 E.01781
G1 X123.27 Y108.395 E.01744
G1 X122.825 Y108.125 E.01631
G1 X122.383 Y107.767 E.01784
G1 X121.994 Y107.34 E.01811
G1 X121.684 Y106.877 E.01748
G1 X121.446 Y106.374 E.01744
G1 X121.284 Y105.842 E.01744
G1 X121.201 Y105.292 E.01744
G1 X121.199 Y104.736 E.01744
G1 X121.278 Y104.185 E.01744
G1 X121.436 Y103.652 E.01744
G1 X121.671 Y103.147 E.01744
G1 X121.976 Y102.682 E.01744
G1 X122.346 Y102.267 E.01744
G1 X122.772 Y101.909 E.01744
G1 X123.246 Y101.618 E.01744
G1 X123.757 Y101.398 E.01744
G1 X124.294 Y101.256 E.01744
G1 X124.824 Y101.195 E.01672
G1 X125.402 Y101.211 E.01811
G1 X125.95 Y101.31 E.01748
G1 X126.455 Y101.48 E.01669
G1 X126.953 Y101.73 E.01747
G1 X127.426 Y102.062 E.01811
G1 X127.794 Y102.414 E.01597
G1 X128.17 Y102.886 E.01893
G1 X128.444 Y103.37 E.01744
G1 X128.645 Y103.889 E.01744
G1 X128.767 Y104.432 E.01744
G1 X128.81 Y104.986 E.01744
G1 X128.771 Y105.541 E.01744
G1 X128.653 Y106.085 E.01744
G1 X128.456 Y106.605 E.01744
G1 X128.185 Y107.091 E.01744
G1 X127.847 Y107.532 E.01744
G1 X127.448 Y107.92 E.01744
G1 X127.015 Y108.232 E.01673
G1 X126.533 Y108.485 E.01706
M204 S1000
G1 X126.431 Y108.906 F10800
;WIPE_START
G1 F8640
G1 X125.977 Y108.683 E-.13635
G1 X125.43 Y108.786 E-.12844
G1 X124.875 Y108.808 E-.12844
G1 X124.333 Y108.751 E-.12567
G1 X123.783 Y108.61 E-.13118
G1 X123.27 Y108.395 E-.12844
G1 X122.825 Y108.125 E-.12011
G1 X122.383 Y107.767 E-.13141
G1 X121.994 Y107.34 E-.13338
G1 X121.684 Y106.877 E-.12871
G1 X121.446 Y106.374 E-.12844
G1 X121.441 Y106.356 E-.00443
;WIPE_END
G1 E-.075 F2100
G1 Z.6 F720
G1 X129.485 Y102.391 F10800
G1 Z.2 F720
G1 E1.5 F2100
M204 S800
;TYPE:Solid infill
;WIDTH:0.428757
G1 F1200
G1 X128.251 Y101.172 E.05563
G1 X127.818 Y100.843 E.01744
G1 X127.352 Y100.563 E.01745
G1 X126.903 Y100.355 E.01588
G1 X129.636 Y103.088 E.12401
G1 X129.759 Y103.396 E.01064
G1 X129.898 Y103.895 E.01661
G1 X129.101 Y103.099 E.03612
G1 X128.771 Y102.495 E.0221
G1 X128.408 Y102.022 E.01913
G1 X127.92 Y101.541 E.02198
G1 X127.29 Y101.098 E.02472
G1 X126.9 Y100.898 E.01403
M73 Q5 S7
G1 X126.112 Y100.11 E.03575
G1 X125.812 Y100.044 E.00985
G1 X125.463 Y100.006 E.01129
G1 X126.066 Y100.61 E.02739
G1 X125.408 Y100.497 E.02143
G1 X124.896 Y99.985 E.02322
G1 X124.388 Y100.022 E.01636
M73 P5 R7
G1 X124.848 Y100.483 E.02088
G1 X124.35 Y100.53 E.01606
G1 X123.922 Y100.103 E.01939
G1 X123.491 Y100.217 E.01432
G1 X123.894 Y100.62 E.0183
G1 X123.475 Y100.747 E.01404
G1 X123.088 Y100.36 E.01758
G1 X122.715 Y100.532 E.01319
G1 X123.089 Y100.906 E.01696
G1 X122.958 Y100.959 E.00451
G1 X122.734 Y101.098 E.00844
G1 X122.368 Y100.731 E.01662
G1 X122.041 Y100.95 E.01262
G1 X122.397 Y101.306 E.01613
G1 X122.091 Y101.545 E.01247
G1 X121.733 Y101.187 E.01623
G1 X121.453 Y101.453 E.01238
G1 X121.802 Y101.803 E.01586
G1 X121.543 Y102.089 E.01239
G1 X121.192 Y101.738 E.01595
G1 X120.949 Y102.04 E.01245
G1 X121.31 Y102.402 E.01641
G1 X121.091 Y102.728 E.01262
G1 X120.728 Y102.365 E.01648
G1 X120.535 Y102.717 E.01289
G1 X120.91 Y103.092 E.01702
G1 X120.743 Y103.471 E.01328
G1 X120.363 Y103.091 E.01724
G1 X120.241 Y103.396 E.01052
G1 X120.216 Y103.49 E.00314
G1 X120.618 Y103.892 E.01823
G1 X120.579 Y104.023 E.0044
G1 X120.53 Y104.35 E.01059
G1 X120.102 Y103.922 E.01942
G1 X120.019 Y104.385 E.01508
G1 X120.488 Y104.854 E.02128
G1 X120.484 Y105.316 E.01484
G1 X120.498 Y105.409 E.00301
G1 X119.984 Y104.895 E.02333
G1 X120.003 Y105.46 E.01813
G1 X120.857 Y106.313 E.03872
M204 S1000
;WIPE_START
G1 F8640
G1 X120.003 Y105.46 E-.27871
G1 X119.984 Y104.895 E-.13051
G1 X120.498 Y105.409 E-.16789
G1 X120.484 Y105.316 E-.0217
G1 X120.488 Y104.854 E-.10677
G1 X120.019 Y104.385 E-.15313
G1 X120.102 Y103.922 E-.10854
G1 X120.53 Y104.35 E-.13974
G1 X120.579 Y104.023 E-.07623
G1 X120.618 Y103.892 E-.03163
G1 X120.216 Y103.49 E-.13119
G1 X120.241 Y103.396 E-.02262
G1 X120.332 Y103.169 E-.05634
;WIPE_END
G1 E-.075 F2100
G1 Z.6 F720
G1 X129.152 Y103.695 F10800
G1 Z.2 F720
G1 E1.5 F2100
M204 S800
G1 F1200
G1 X129.997 Y104.54 E.03835
G1 X130.016 Y105.105 E.01813
G1 X129.499 Y104.588 E.02348
G1 X129.527 Y105 E.01326
G1 X129.517 Y105.152 E.00488
G1 X129.981 Y105.615 E.02104
G1 X129.903 Y106.084 E.01523
G1 X129.474 Y105.655 E.01946
G1 X129.379 Y106.105 E.01477
G1 X129.785 Y106.511 E.01841
G1 X129.759 Y106.604 E.00308
G1 X129.637 Y106.909 E.01055
G1 X129.249 Y106.521 E.0176
G1 X129.096 Y106.914 E.01352
G1 X129.465 Y107.283 E.01675
G1 X129.272 Y107.635 E.01289
G1 X128.905 Y107.268 E.01663
G1 X128.695 Y107.604 E.0127
G1 X129.051 Y107.96 E.01616
G1 X128.808 Y108.263 E.01245
G1 X128.458 Y107.913 E.01588
G1 X128.191 Y108.192 E.01238
G1 X128.547 Y108.547 E.01613
G1 X128.267 Y108.813 E.01238
